X: 85
T: Off To California
M: 4/4
L: 1/8
R: hornpipe
K:Gmaj
(3DEF|"G"GFGB "D"AGED|"G"GBdg "C"e2(3def|"G"gfgd "Em"edBG|"D"ABAG "C"E2(3DEF|
"G"GFGB "D"AGED|"G"GBdg "C"e2(3def|"G"gfgd "Em"edBG|"D"AGEF "G"G3:|
|:Bd|"G"gfeg "D"fedf|"C"edef "Em"edB2|"G"gfgd "Em"edBG|"D"ABAG "C"E2(3DEF|
"G"GFGB "D"AGED|"G"GBdg "C"e2(3def|"G"gfgd "Em"edBG|"D"AGEF "G"G4:|


